apps/documenteditor/main/resources/img/toolbar/2.5x/big/btn-email.svg

<svg width="28" height="28" viewBox="0 0 28 28" fill="none" xmlns="http://www.w3.org/2000/svg">
<path d="M24 12.8175C24 14.661 23.6182 16.1407 22.8546 17.2565C22.0994 18.3723 21.0715 18.9303 19.7709 18.9303C19.0241 18.9303 18.4158 18.7119 17.9459 18.2753C17.4844 17.8387 17.2159 17.2444 17.1403 16.4924H17.09C16.7292 17.301 16.2089 17.9115 15.5293 18.3238C14.8496 18.7281 14.0566 18.9303 13.1504 18.9303C11.9085 18.9303 10.9478 18.5421 10.2681 17.7659C9.58842 16.9816 9.24858 15.886 9.24858 14.4791C9.24858 12.8458 9.75205 11.5116 10.759 10.4767C11.7743 9.4336 13.0959 8.91207 14.7237 8.91207C15.8817 8.91207 17.0816 9.07782 18.3235 9.40934L18.0466 15.037V15.4008C18.0466 16.2418 18.1934 16.8765 18.4871 17.305C18.7808 17.7255 19.2675 17.9357 19.9471 17.9357C20.8114 17.9357 21.5163 17.4667 22.0617 16.5288C22.6155 15.5828 22.8924 14.3537 22.8924 12.8417C22.8924 11.2731 22.5609 9.89852 21.8981 8.71801C21.2352 7.5375 20.287 6.6319 19.0535 6.00121C17.8284 5.36244 16.4271 5.04306 14.8496 5.04306C12.9197 5.04306 11.2163 5.44734 9.73946 6.25591C8.27103 7.0564 7.13824 8.19244 6.34109 9.66404C5.55234 11.1356 5.15796 12.8256 5.15796 14.7338C5.15796 17.3374 5.85861 19.3507 7.25991 20.7738C8.66121 22.1888 10.6499 22.8963 13.2259 22.8963C14.0063 22.8963 14.795 22.8235 15.5922 22.678C16.3977 22.5324 17.3711 22.2494 18.5123 21.829V23.0297C16.8089 23.6766 15.072 24 13.3014 24C10.373 24 8.09062 23.1914 6.45437 21.5743C4.81812 19.9491 4 17.6931 4 14.8065C4 12.7366 4.45312 10.8769 5.35935 9.22741C6.27397 7.56984 7.56199 6.28421 9.22341 5.37053C10.8932 4.45684 12.777 4 14.8748 4C16.6788 4 18.2731 4.35981 19.6576 5.07944C21.0506 5.79907 22.1204 6.83 22.8672 8.17223C23.6224 9.50637 24 11.0548 24 12.8175ZM10.545 14.4548C10.545 15.6111 10.7758 16.4803 11.2373 17.0625C11.6988 17.6446 12.4288 17.9357 13.4273 17.9357C15.567 17.9357 16.7124 16.5369 16.8634 13.7392L17.0648 10.2098C16.4019 9.99151 15.5922 9.88235 14.6356 9.88235C13.3854 9.88235 12.391 10.2988 11.6526 11.1316C10.9142 11.9563 10.545 13.0641 10.545 14.4548Z" fill="black"/>
</svg>

<svg xmlns="http://www.w3.org/2000/svg" width="28" height="28" fill="none"><path fill="#000" d="M24 12.818c0 1.843-.382 3.323-1.145 4.438-.756 1.116-1.784 1.674-3.084 1.674-.747 0-1.355-.218-1.825-.655-.462-.436-.73-1.03-.806-1.783h-.05c-.36.809-.881 1.42-1.56 1.832-.68.404-1.473.606-2.38.606-1.242 0-2.202-.388-2.882-1.164-.68-.784-1.02-1.88-1.02-3.287 0-1.633.504-2.967 1.511-4.002 1.015-1.043 2.337-1.565 3.965-1.565 1.158 0 2.358.166 3.6.497l-.277 5.628v.364c0 .84.146 1.476.44 1.904.294.42.78.63 1.46.63.864 0 1.57-.468 2.115-1.406.553-.946.83-2.175.83-3.687 0-1.569-.331-2.943-.994-4.124-.663-1.18-1.611-2.086-2.845-2.717-1.225-.639-2.626-.958-4.203-.958-1.93 0-3.634.404-5.11 1.213a8.313 8.313 0 0 0-3.4 3.408c-.789 1.472-1.183 3.162-1.183 5.07 0 2.603.7 4.617 2.102 6.04 1.401 1.415 3.39 2.122 5.966 2.122.78 0 1.569-.073 2.366-.218.806-.146 1.78-.429 2.92-.849v1.2a14.54 14.54 0 0 1-5.21.971c-2.929 0-5.211-.809-6.848-2.426C4.818 19.95 4 17.694 4 14.806c0-2.07.453-3.93 1.36-5.579a9.623 9.623 0 0 1 3.863-3.856C10.893 4.457 12.777 4 14.875 4c1.804 0 3.398.36 4.783 1.08 1.393.72 2.462 1.75 3.21 3.092C23.621 9.506 24 11.055 24 12.818Zm-13.455 1.637c0 1.156.23 2.025.692 2.607.462.583 1.192.874 2.19.874 2.14 0 3.285-1.4 3.436-4.197l.202-3.53c-.663-.217-1.473-.327-2.43-.327-1.25 0-2.244.417-2.982 1.25-.739.824-1.108 1.932-1.108 3.323Z"/></svg>
